X:1
T:Vil threnen heisz
T:Gemignano Capilupi
T:Source : Canzonette mit 3 Stimmen/ H.Vecchi und G.Capilupi---Nürnberg---P.Haffmann---1606. Editor : André Vierendeels (17/02/17).
T:Notes : Original clefs :G2, G2, C4 Editorial accidentals above the staff Text Middle German by Valentin Hauszmann German contrafactum of "Questo troppo" (1597)
T:Vil threnen heisz
T:©
T:©
C:Gemignano Capilupi
Z:©
%%score [ 1 2 3 ]
L:1/8
Q:1/4=120
M:4/4
K:C
V:1 treble nm="Soprano 1" snm="S 1"
V:2 treble nm="Soprano 2" snm="S 2"
V:3 treble-8 nm="Tenor" snm="T"
V:1
"^1)" z2 d2 d2 d2 | d2 d2 d3 e | f2 ed c2 d2 | e4 e4 | g2 gg g2 a2 | f2 e2 d4- | d4 e4 | %7
w: Vil thre- nen|heisz mein au- gen|jetzt _ _ _ ausz-|gies- sen|dasz hir gegn mir eur|Hertz thut so|_ ver-|
w: War- umb ver-|bergt hir für mir|eur _ _ _ Ge-|sich- te,|und wendt auch ab wenn|ich mich zu|_ euch|
 ^c2 d4 c2 | d8 :: z2 c2 c2 c2 | c2 d2 B4 | B2 g2 f2 d2 | e4 e2 a2 | f2 e2 d4 | d4 z dde | %15
w: schlies- * *|sen,|und wolt mein|Lieb nicht ach-|ten, auch nicht be-|trach- ten, ausz|wel- chen treu-|en, zu euch umb|
w: rich- * *|te,|ist den bey|euch kein gna-|de, so ist es|scha- de, dasz|ich bin kom-|men, und umb eur|
 f4 z ccd | e2 f2 e4 | d8 :| %18
w: rath und hülff ich|stets thu schrey-|en.|
w: huld mich ha- be|an- ge nom-|men.|
V:2
"^2)""^1)" z2 A2 A2 A2 | A8 | z2 G2 A2 B2 | c2 A2 G2 G2 | e2 ee e2 c2 | d6 c2 | _B2 G2 g4- | %7
w: Vil thre- nen|heisz|mein au- gen|jetzt ausz- gies- sen,|dasz hir gegn mir eur|Hertz thut|so ver- schlies-|
w: Solch' här- tig-|keit|hett ich bey|euch nicht g'su- chet,|als ich letzt find, nun|sey die|stund ver- fluch-|
 g2 f2 e4 | d8 :: z2 A2 A2 G2 | A2 A2 G4 | G2 c2 A2 B2 | c4 c2 c2 |"^-natural" d2 c2 B4 | BBBc d4 | %15
w: |sen,|und wolt mein|Lieb nicht ach-|ten, auch nicht be-|trach- ten, ausz|wel- chen treu-|en, zu euch umb rath|
w: |tet,|die mich zu|euch ge- tra-|gen, ich mag wol|sa- gen, hett|ich euch g'mit-|ten, un- glück hett mich|
 z AAB c4- | c2 d4 ^c2 | d8 :| %18
w: und filff ich stets|_ thu schrey-|en.|
w: duch euch nicht so|_ ge- rit-|ten.|
V:3
"^3)""^1)" z2 d2 d2 d2 | d6 D2 | D2 E2 F2 D2 | C4 C4 | c2 cc c2 F2 | _B6 A2 | G4 G4 | A8 | D8 :: %9
w: Vil thre- nen|heisz mein|au- gen jetzt ausz-|gies- sen,|dasz hir gegn mir eur|Hertz thut|so ver-|schlies-|sen.|
 z2 f2 f2 e2 | f2 d2 e4 | e2 c2 d2 G2 | c4 c2 A2 | _B2 c2 G4 | GGGA _B4 | z FFG A4- | A2 _B2 A4 | %17
w: und wolt mein|Lieb nicht ach-|ten, auch nicht be-|trach- ten, ausz|wel- chen treu-|en, zu euch umb rath|und hilff ich stets|_ thu schrey-|
 D8 :| %18
w: en.|

